**harm	**harte	**timestamp	**phrase	**leadinstrument	**kern
*M4/4	*M4/4	*	*	*	*
*C#:	*C#:	*	*	*	*C#:
1r;	N	0	.	r	1r;
=1	=1	=1	=1	=1	=1
*>A_intro	*>A_intro	*>A_intro	*>A_intro	*>A_intro	*>A_intro
1im7	C#:min9	0.441	newline	saxophone	1C# 1e 1g# 1b#
=2	=2	=2	=2	=2	=2
1im7	C#:min9	2.55	.	saxophone	1C# 1e 1g# 1b#
=3	=3	=3	=3	=3	=3
1im7	C#:min9	4.659	.	saxophone	1C# 1e 1g# 1b#
=4	=4	=4	=4	=4	=4
1im7	C#:min9	6.768	.	saxophone	1C# 1e 1g# 1b#
=5	=5	=5	=5	=5	=5
1im7	C#:min9	8.877	newline	saxophone	1C# 1e 1g# 1b#
=6	=6	=6	=6	=6	=6
1im7	C#:min9	10.889	.	saxophone	1C# 1e 1g# 1b#
=7	=7	=7	=7	=7	=7
1im7	C#:min9	12.902	.	saxophone	1C# 1e 1g# 1b#
=8	=8	=8	=8	=8	=8
1im7	C#:min9	14.915	.	saxophone	1C# 1e 1g# 1b#
=9	=9	=9	=9	=9	=9
*>B_chorus	*>B_chorus	*>B_chorus	*>B_chorus	*>B_chorus	*>B_chorus
1-VI7	A:maj7(#11)	16.927	newline	voice	1A 1cc# 1ee 1gg#
=10	=10	=10	=10	=10	=10
1-VI7	A:maj7(#11)	18.997	.	voice	1A 1cc# 1ee 1gg#
=11	=11	=11	=11	=11	=11
1im7	C#:min9	21.068	.	voice	1C# 1e 1g# 1b#
=12	=12	=12	=12	=12	=12
2im7	C#:min9	23.138	.	voice	2C# 2e 2g# 2b#
2im7d	C#:min9/b7	24.173	.	voice	2c# 2e 2g# 2B#
=13	=13	=13	=13	=13	=13
1-VI7	A:maj7(#11)	25.208	newline	voice	1A 1cc# 1ee 1gg#
=14	=14	=14	=14	=14	=14
1-VI7	A:maj7(#11)	27.267	.	voice	1A 1cc# 1ee 1gg#
=15	=15	=15	=15	=15	=15
1im7	C#:min9	29.325	.	voice	1C# 1e 1g# 1b#
=16	=16	=16	=16	=16	=16
2im7	C#:min9	31.383	.	voice	2C# 2e 2g# 2b#
2im7d	C#:min9/b7	32.412	.	voice	2c# 2e 2g# 2B#
=17	=17	=17	=17	=17	=17
*>C_verse	*>C_verse	*>C_verse	*>C_verse	*>C_verse	*>C_verse
1-VI7	A:maj7	33.442	newline	voice	1A 1cc# 1ee 1gg#
=18	=18	=18	=18	=18	=18
1V7	G#:7	35.474	.	voice	1G# 1b# 1dd# 1ff#
=19	=19	=19	=19	=19	=19
2ivm7	F#:min7	37.506	.	voice	2F# 2a 2cc# 2ee#
4-VII	B:sus4(b7)	38.522	.	voice	4B 4dd# 4ff#
4-VIIm7	B:7	39.03	.	voice	4B 4dd# 4ff# 4aa#
=20	=20	=20	=20	=20	=20
2-III7	E:maj7	39.538	.	voice	2E 2g# 2b 2dd#
2-IIIm7	E:7	40.555	.	voice	2E 2g# 2b 2dd#
=21	=21	=21	=21	=21	=21
1-VI7	A:maj7	41.571	newline	voice	1A 1cc# 1ee 1gg#
=22	=22	=22	=22	=22	=22
1v7	G#:min7	43.626	.	voice	1G# 1b 1dd# 1ff#
=23	=23	=23	=23	=23	=23
2IV	F#:sus4(b7)	45.681	.	voice	2F# 2a# 2cc#
2IVm7	F#:7	46.709	.	voice	2F# 2a# 2cc# 2ee#
=24	=24	=24	=24	=24	=24
2-VII	B:sus4(b7)	47.736	.	voice	2B 2dd# 2ff#
2-VII	B:maj6	48.764	.	voice	2B 2dd# 2ff#
=25	=25	=25	=25	=25	=25
*>B_chorus	*>B_chorus	*>B_chorus	*>B_chorus	*>B_chorus	*>B_chorus
1-VI7	A:maj7(#11)	49.791	newline	voice	1A 1cc# 1ee 1gg#
=26	=26	=26	=26	=26	=26
1-VI7	A:maj7(#11)	51.857	.	voice	1A 1cc# 1ee 1gg#
=27	=27	=27	=27	=27	=27
1im7	C#:min9	53.923	.	voice	1C# 1e 1g# 1b#
=28	=28	=28	=28	=28	=28
2im7	C#:min9	55.989	.	voice	2C# 2e 2g# 2b#
2im7d	C#:min9/b7	57.022	.	voice	2c# 2e 2g# 2B#
=29	=29	=29	=29	=29	=29
1-VI7	A:maj7(#11)	58.055	newline	voice	1A 1cc# 1ee 1gg#
=30	=30	=30	=30	=30	=30
1-VI7	A:maj7(#11)	60.098	.	voice	1A 1cc# 1ee 1gg#
=31	=31	=31	=31	=31	=31
1im7	C#:min9	62.141	.	voice	1C# 1e 1g# 1b#
=32	=32	=32	=32	=32	=32
2im7	C#:min9	64.183	.	voice	2C# 2e 2g# 2b#
2im7d	C#:min9/b7	65.205	.	voice	2c# 2e 2g# 2B#
=33	=33	=33	=33	=33	=33
*>C_verse	*>C_verse	*>C_verse	*>C_verse	*>C_verse	*>C_verse
1-VI7	A:maj7	66.226	newline	voice	1A 1cc# 1ee 1gg#
=34	=34	=34	=34	=34	=34
1V7	G#:7	68.276	.	voice	1G# 1b# 1dd# 1ff#
=35	=35	=35	=35	=35	=35
2ivm7	F#:min7	70.326	.	voice	2F# 2a 2cc# 2ee#
4-VII	B:sus4(b7)	71.351	.	voice	4B 4dd# 4ff#
4-VIIm7	B:7	71.864	.	voice	4B 4dd# 4ff# 4aa#
=36	=36	=36	=36	=36	=36
2-III7	E:maj7	72.376	.	voice	2E 2g# 2b 2dd#
2-IIIm7	E:7	73.401	.	voice	2E 2g# 2b 2dd#
=37	=37	=37	=37	=37	=37
1-VI7	A:maj7	74.426	newline	voice	1A 1cc# 1ee 1gg#
=38	=38	=38	=38	=38	=38
1v7	G#:min7	76.491	.	voice	1G# 1b 1dd# 1ff#
=39	=39	=39	=39	=39	=39
2IV	F#:sus4(b7)	78.556	.	voice	2F# 2a# 2cc#
2IVm7	F#:7	79.589	.	voice	2F# 2a# 2cc# 2ee#
=40	=40	=40	=40	=40	=40
2-VII	B:sus4(b7)	80.622	.	voice	2B 2dd# 2ff#
2-VII	B:maj6	81.654	.	voice	2B 2dd# 2ff#
=41	=41	=41	=41	=41	=41
*>D_solo	*>D_solo	*>D_solo	*>D_solo	*>D_solo	*>D_solo
1im7	C#:min9	82.687	newline	saxophone	1C# 1e 1g# 1b#
=42	=42	=42	=42	=42	=42
1im7	C#:min9	84.703	.	saxophone	1C# 1e 1g# 1b#
=43	=43	=43	=43	=43	=43
1v7	G#:min7	86.719	.	saxophone	1G# 1b 1dd# 1ff#
=44	=44	=44	=44	=44	=44
1v7	G#:min7	88.735	.	saxophone	1G# 1b 1dd# 1ff#
=45	=45	=45	=45	=45	=45
1ivm7	F#:min7	90.751	newline	saxophone	1F# 1a 1cc# 1ee#
=46	=46	=46	=46	=46	=46
1ivm7	F#:min7	92.734	.	saxophone	1F# 1a 1cc# 1ee#
=47	=47	=47	=47	=47	=47
1-VII	B:maj	94.718	.	saxophone	1B 1dd# 1ff#
=48	=48	=48	=48	=48	=48
4-VII	B:maj	96.701	.	saxophone	4B 4dd# 4ff#
2-VIId	B:sus4/b7	97.197	.	saxophone	2b 2dd# 2ff#
4-VIId	B:maj/b7	98.188	.	saxophone	4b 4dd# 4ff#
=49	=49	=49	=49	=49	=49
1im7	C#:min9	98.684	newline	saxophone	1C# 1e 1g# 1b#
=50	=50	=50	=50	=50	=50
1im7	C#:min9	100.672	.	saxophone	1C# 1e 1g# 1b#
=51	=51	=51	=51	=51	=51
1v7	G#:min9	102.66	.	saxophone	1G# 1b 1dd# 1ff#
=52	=52	=52	=52	=52	=52
1v7	G#:min9	104.648	.	saxophone	1G# 1b 1dd# 1ff#
=53	=53	=53	=53	=53	=53
1ivm7	F#:min9	106.636	newline	saxophone	1F# 1a 1cc# 1ee#
=54	=54	=54	=54	=54	=54
1ivm7	F#:min9	108.626	.	saxophone	1F# 1a 1cc# 1ee#
=55	=55	=55	=55	=55	=55
1-VII	B:sus4(b7)	110.616	.	saxophone	1B 1dd# 1ff#
=56	=56	=56	=56	=56	=56
2.-VII	B:sus4(b7)	112.607	.	saxophone	2B 2dd# 2ff#
4-VII	B:maj	114.099	.	saxophone	4B 4dd# 4ff#
=57	=57	=57	=57	=57	=57
*>B_chorus	*>B_chorus	*>B_chorus	*>B_chorus	*>B_chorus	*>B_chorus
1-VI7	A:maj7(#11)	114.597	newline	saxophone	1A 1cc# 1ee 1gg#
=58	=58	=58	=58	=58	=58
1-VI7	A:maj7(#11)	116.628	.	saxophone	1A 1cc# 1ee 1gg#
=59	=59	=59	=59	=59	=59
1im7	C#:min9	118.658	.	saxophone	1C# 1e 1g# 1b#
=60	=60	=60	=60	=60	=60
2im7	C#:min9	120.689	.	saxophone	2C# 2e 2g# 2b#
2im7d	C#:min9/b7	121.704	.	saxophone	2c# 2e 2g# 2B#
=61	=61	=61	=61	=61	=61
1-VI7	A:maj7(#11)	122.72	newline	saxophone	1A 1cc# 1ee 1gg#
=62	=62	=62	=62	=62	=62
1-VI7	A:maj7(#11)	124.731	.	saxophone	1A 1cc# 1ee 1gg#
=63	=63	=63	=63	=63	=63
1im7	C#:min9	126.742	.	saxophone	1C# 1e 1g# 1b#
=64	=64	=64	=64	=64	=64
2im7	C#:min9	128.753	.	saxophone	2C# 2e 2g# 2b#
2im7d	C#:min9/b7	129.758	.	saxophone	2c# 2e 2g# 2B#
=65	=65	=65	=65	=65	=65
*>C2_verse	*>C2_verse	*>C2_verse	*>C2_verse	*>C2_verse	*>C2_verse
1-VI7	A:maj7	130.764	newline	saxophone	1A 1cc# 1ee 1gg#
=66	=66	=66	=66	=66	=66
1V7	G#:7	132.802	.	saxophone	1G# 1b# 1dd# 1ff#
=67	=67	=67	=67	=67	=67
2ivm7	F#:min7	134.841	.	saxophone	2F# 2a 2cc# 2ee#
4-VII	B:sus4(b7)	135.86	.	saxophone	4B 4dd# 4ff#
4-VIIm7	B:7	136.369	.	saxophone	4B 4dd# 4ff# 4aa#
=68	=68	=68	=68	=68	=68
2-III7	E:maj7	136.879	.	saxophone	2E 2g# 2b 2dd#
2-IIIm7	E:7	137.898	.	saxophone	2E 2g# 2b 2dd#
=69	=69	=69	=69	=69	=69
1-VI7	A:maj7	138.917	newline	saxophone	1A 1cc# 1ee 1gg#
=70	=70	=70	=70	=70	=70
1v7	G#:min7	140.956	.	saxophone	1G# 1b 1dd# 1ff#
=71	=71	=71	=71	=71	=71
2IV	F#:sus4(b7)	142.994	.	saxophone	2F# 2a# 2cc#
2IVm7	F#:7	144.013	.	saxophone	2F# 2a# 2cc# 2ee#
=72	=72	=72	=72	=72	=72
1-VII	B:sus4(b7)	145.033	.	saxophone	1B 1dd# 1ff#
=73	=73	=73	=73	=73	=73
1-VII	B:sus4(b7)	147.071	.	saxophone	1B 1dd# 1ff#
=74	=74	=74	=74	=74	=74
1-VII	B:maj6(b9)	149.109	.	saxophone	1B 1dd# 1ff#
=75	=75	=75	=75	=75	=75
1-VII	B:maj6(b9)	151.148	.	saxophone	1B 1dd# 1ff#
=76	=76	=76	=76	=76	=76
*>D2_solo	*>D2_solo	*>D2_solo	*>D2_solo	*>D2_solo	*>D2_solo
1im7	C#:min9	153.186	newline	saxophone	1C# 1e 1g# 1b#
=77	=77	=77	=77	=77	=77
1im7	C#:min9	155.188	.	saxophone	1C# 1e 1g# 1b#
=78	=78	=78	=78	=78	=78
1v7	G#:min9	157.19	.	saxophone	1G# 1b 1dd# 1ff#
=79	=79	=79	=79	=79	=79
1v7	G#:min9	159.192	.	saxophone	1G# 1b 1dd# 1ff#
=80	=80	=80	=80	=80	=80
1ivm7	F#:min7	161.194	newline	saxophone	1F# 1a 1cc# 1ee#
=81	=81	=81	=81	=81	=81
1ivm7	F#:min7	163.18	.	saxophone	1F# 1a 1cc# 1ee#
=82	=82	=82	=82	=82	=82
1-VII	B:maj	165.167	.	saxophone	1B 1dd# 1ff#
=83	=83	=83	=83	=83	=83
4-VII	B:maj	167.153	.	saxophone	4B 4dd# 4ff#
2-VI	A:sus2	167.649	.	saxophone	2A 2cc# 2ee
4-VIId	B:maj/b7	168.643	.	saxophone	4b 4dd# 4ff#
=84	=84	=84	=84	=84	=84
1im7	C#:min9	169.139	newline	saxophone	1C# 1e 1g# 1b#
=85	=85	=85	=85	=85	=85
1im7	C#:min9	171.121	.	saxophone	1C# 1e 1g# 1b#
=86	=86	=86	=86	=86	=86
1v7	G#:min9	173.103	.	saxophone	1G# 1b 1dd# 1ff#
=87	=87	=87	=87	=87	=87
1v7	G#:min9	175.085	.	saxophone	1G# 1b 1dd# 1ff#
=88	=88	=88	=88	=88	=88
1ivm7	F#:min7	177.066	newline	saxophone	1F# 1a 1cc# 1ee#
=89	=89	=89	=89	=89	=89
1ivm7	F#:min7	179.045	.	saxophone	1F# 1a 1cc# 1ee#
=90	=90	=90	=90	=90	=90
1-VII	B:maj	181.023	.	saxophone	1B 1dd# 1ff#
=91	=91	=91	=91	=91	=91
4-VII	B:maj	183.001	.	saxophone	4B 4dd# 4ff#
2-VI	A:sus2	183.496	.	saxophone	2A 2cc# 2ee
4-VIId	B:maj/b7	184.485	.	saxophone	4b 4dd# 4ff#
=92	=92	=92	=92	=92	=92
1im7	C#:min9	184.98	newline	saxophone	1C# 1e 1g# 1b#
=93	=93	=93	=93	=93	=93
1im7	C#:min9	186.935	.	saxophone	1C# 1e 1g# 1b#
=94	=94	=94	=94	=94	=94
1v7	G#:min9	188.889	.	saxophone	1G# 1b 1dd# 1ff#
=95	=95	=95	=95	=95	=95
1v7	G#:min9	190.844	.	saxophone	1G# 1b 1dd# 1ff#
=96	=96	=96	=96	=96	=96
1ivm7	F#:min7	192.799	newline	saxophone	1F# 1a 1cc# 1ee#
=97	=97	=97	=97	=97	=97
1ivm7	F#:min7	194.761	.	saxophone	1F# 1a 1cc# 1ee#
=98	=98	=98	=98	=98	=98
1-VII	B:maj	196.723	.	saxophone	1B 1dd# 1ff#
=99	=99	=99	=99	=99	=99
4-VII	B:maj	198.685	.	saxophone	4B 4dd# 4ff#
2-VI	A:sus2	199.176	.	saxophone	2A 2cc# 2ee
4-VIId	B:maj/b7	200.157	.	saxophone	4b 4dd# 4ff#
=100	=100	=100	=100	=100	=100
*>_fadeout	*>_fadeout	*>_fadeout	*>_fadeout	*>_fadeout	*>_fadeout
1im7	C#:min9	200.647	newline	saxophone	1C# 1e 1g# 1b#
=101	=101	=101	=101	=101	=101
1im7	C#:min9	202.597	.	saxophone	1C# 1e 1g# 1b#
=102	=102	=102	=102	=102	=102
1v7	G#:min9	204.547	.	saxophone	1G# 1b 1dd# 1ff#
=103	=103	=103	=103	=103	=103
1v7	G#:min9	206.496	.	saxophone	1G# 1b 1dd# 1ff#
=104	=104	=104	=104	=104	=104
1ivm7	F#:min7	208.446	newline	saxophone voice	1F# 1a 1cc# 1ee#
=105	=105	=105	=105	=105	=105
1ivm7	F#:min7	209.519	.	saxophone voice	1F# 1a 1cc# 1ee#
=106	=106	=106	=106	=106	=106
1-VII	B:maj	210.591	.	saxophone voice	1B 1dd# 1ff#
=107	=107	=107	=107	=107	=107
4-VII	B:maj	211.664	.	saxophone voice	4B 4dd# 4ff#
2-VI	A:sus2	211.932	.	saxophone voice	2A 2cc# 2ee
4-VIId	B:maj/b7	212.468	.	saxophone voice	4b 4dd# 4ff#
1r;	N	212.736	.	r	1r;
1r;	N	216.483	.	r	1r;
*-	*-	*-	*-	*-	*-
!!!OTL: Can We Still Be Friends
!!!COC: Todd Rundgren
!!!BillboardChartDate: 1978/09/02
!!!BillboardPeak: 29
!!!BillboardWeeksOnChart: 15
!!!SampleTargetRank: 91
!!!SampleActualRank: 93
!!!SampleID#: 1076
!!!RDF**harmony: **recip + pitch class of root + harmonic quality
!!!RDF**harte: Chris Harte's syntax, used by MIREX
!!!RDF**phrase: newline = linebreak in original McGill transcription
!!!RDF**timestamp: McGill audio timestamp in seconds
!!!RDF**leadinstrument: original McGill primary instrumentation annotation
!!!RDT: 2017/01/12/
!!!ENC: Nathaniel Condit-Schultz
!!!EST: Awating manual error checking and editing.
